rospo-light/16x16/actions/im-msn.svg

<svg height="16" viewBox="0 0 16 16" width="16" xmlns="http://www.w3.org/2000/svg"><path d="m3 3v4h4v-4zm6 0v4h4v-4zm-6 6v4h4v-4zm6 0v4h4v-4z" fill="#5c616c"/></svg>

<?xml version="1.0" encoding="UTF-8" standalone="no"?>
<svg xmlns="http://www.w3.org/2000/svg" width="22" height="22" viewBox="0 0 22 22">
 <defs>
  <style type="text/css" id="current-color-scheme">
   .ColorScheme-Text { color:#5c616c; } .ColorScheme-Highlight { color:#5294e2; }
  </style>
 </defs>
 <path style="fill:currentColor;opacity:1" class="ColorScheme-Text" transform="translate(3 3)" d="M 3 3 L 3 7 L 7 7 L 7 3 L 3 3 z M 9 3 L 9 7 L 13 7 L 13 3 L 9 3 z M 3 9 L 3 13 L 7 13 L 7 9 L 3 9 z M 9 9 L 9 13 L 13 13 L 13 9 L 9 9 z"/>
</svg>
